**kern	**kern
*staff2	*staff1
*clefF4	*clefG2
*k[]	*k[]
*M4/4	*M4/4
*C:	*C:
=-	=-
4.r	8g'L
.	8a'
.	8b'J
=216	=216
8C	16cLL
.	16cc
4C	16e
.	16ccJJ
.	16cLL
.	16cc
8GL	16e
.	16ccJJ
8E	16cLL
.	16cc
8CJ	16e
.	16ccJJ
=217	=217
8BB	16dLL
.	16dd
4BB	16g
.	16ddJJ
.	16dLL
.	16dd
8GL	16g
.	16ddJJ
8D	16dLL
.	16dd
8BBJ	16g
.	16ddJJ
=218	=218
8BB-	16eLL
.	16ee
4BB-	16cc
.	16eeJJ
.	16eLL
.	16ee
8GL	16cc
.	16eeJJ
8E	16eLL
.	16ee
8BB-J	16cc
.	16eeJJ
=219	=219
8AA	16fLL
.	16ff
4AA	16cc
.	16ffJJ
.	16fLL
.	16ff
8FL	16cc
.	16ffJJ
8C	16fLL
.	16ff
8AAJ	16cc
.	16ffJJ
=220	=220
8AA-	16fLL
.	16ff
4AA-	16cc
.	16ffJJ
.	16fLL
.	16ff
8FL	16cc
.	16ffJJ
8C	16fLL
.	16ff
8AA-J	16cc
.	16ffJJ
=221	=221
8GG	16fLL
.	16ff
4GG	16b
.	16ffJJ
.	16fLL
.	16ff
8FL	16b
.	16ffJJ
8D	16fLL
.	16ff
8GGJ	16b
.	16ffJJ
=222	=222
8GG#	16fLL
.	16ff
4GG#	16b
.	16ffJJ
.	16fLL
.	16ff
8FL	16b
.	16ffJJ
8D	16fLL
.	16ff
8GG#J	16b
.	16ffJJ
=223	=223
16AALL	4f# 4a 4dd 4ff#
16D	.
16F#	.
16AJJ	.
16AALL	8r
16D	.
16F#	(8aaL
16AJJ	.
16AALL	8ff#
16D	.
16F#	8ddJ)
16AJJ	.
=224	=224
16AALL	4cc#
16E	.
16G	.
16AJJ	.
16AALL	8r
16E	.
16G	(8ggL
16AJJ	.
16AALL	8ee
16E	.
16G	8cc#J)
16AJJ	.
=225	=225
16AALL	4dd
16D	.
16F#	.
16AJJ	.
16AALL	8r
16D	.
16F#	(16bbLL
16AJJ	16aaJJ
16AALL	16ggLL
16D	16ff#
16F#	16ee
16AJJ	16ddJJ
=226	=226
16AALL	16cc#LL
16E	16b
16G	16a
16AJJ	16gJJ
16AALL	16f#LL
16E	16e
16G	16d
16AJJ	16c#JJ
16AALL	16BLL
16E	16A
16G	16B
16AJJ	16c#JJ)
=227	=227
16AALL	4d
16D	.
16F#	.
16AJJ	.
16AALL	8r
16D	.
16F#	(16gg#LL
16AJJ	16aaJJ
16AALL	16ggLL
16D	16ff#
16F#	16ee
16AJJ	16ddJJ)
=228	=228
16AALL	4cc#
16E	.
16G	.
16AJJ	.
16AALL	8r
16E	.
16G	(16aaLL
16AJJ	16ggJJ
16AALL	16ff#LL
16E	16ee
16G	16dd
16AJJ	16cc#JJ)
=229	=229
16AALL	4dd
16D	.
16F#	.
16AJJ	.
16AALL	8r
16D	.
16F#	(16gg#LL
16AJJ	16aaJJ
16AALL	16ggLL
16D	16ff#
16F#	16ee
16AJJ	16ddJJ
=230	=230
16AALL	16cc#LL
16E	16b
16G	16a
16AJJ	16gJJ
16AALL	16f#LL
16E	16e
16G	16d
16AJJ	16c#JJ
16AALL	16BLL
16E	16A
16G	16B
16AJJ	16c#JJ)
=231	=231
4D 4F#	16dLL
.	16e
.	16f#
.	16gJJ
4r	16aLL
.	16b
.	16cc#
.	16ddJJ
4r	16cc#LL
.	16dd
.	16cc#
.	16ddJJ
*clefG2	*
=232	=232
(8aL	16ccLL
.	16dd
8g	16cc
.	16ddJJ
8f#	16ccLL
.	16dd
8g	16cc
.	16ddJJ
8a	16ccLL
.	16dd
8f#J)	16cc
.	16ddJJ
=233	=233
4g	16b-LL
.	16cc
.	16dd
.	16eeJJ
4r	16ff#LL
.	16gg
.	16ff#
.	16ggJJ
4r	16ff#LL
.	16gg
.	16aa
.	16ggJJ
=234	=234
(8ddL	16ffLL
.	16gg
8cc	16ff
.	16ggJJ
8b	16ffLL
.	16gg
8cc	16ff
.	16ggJJ
8dd	16ffLL
.	16gg
8bJ)	16ff
.	16ggJJ
=235	=235
4cc	16ee-LL
.	16ff
.	16gg
.	16aaJJ
4r	16bbLL
.	16ccc
.	16bb
.	16cccJJ
4r	16bbLL
.	16ccc
.	16ddd
.	16cccJJ
=236	=236
(8ggL	16bb-LL
.	16ccc
8ff	16bb-
.	16cccJJ
8ee	16bb-LL
.	16ccc
8ff	16bb-
.	16cccJJ
8gg	16bb-LL
.	16ccc
8eeJ)	16bb-
.	16cccJJ
=237	=237
(8ffL	16aa-LL
.	16ccc
8ee-	16aa-
.	16cccJJ
8dd	16aa-LL
.	16bb-
8ee-	16aa-
.	16bb-JJ
8ff	16aa-LL
.	16bb-
8ddJ)	16aa-
.	16bb-JJ
=238	=238
(8ee-L	16ggLL
.	16bb-
8dd	16gg
.	16bb-JJ
8cc	16ggLL
.	16aa-
8dd	16gg
.	16aa-JJ
8ee-	16ggLL
.	16aa-
8ccJ)	16gg
.	16aa-JJ
=239	=239
(8ddL	16ffLL
.	16aa-
8cc	16ff
.	16aa-JJ
8b	16ffLL
.	16gg
8cc	16ff
.	16ggJJ
8dd	16ffLL
.	16gg
8bJ)	16ff
.	16ggJJ
=240	=240
8cc'L	16ee-LL
.	16gg
8b-'	16ee-
.	16ddJJ
8a-'	16ccLL
.	16ee-
8g'	16cc
.	16b-JJ
8f'	16a-LL
.	16cc
8e-'J	16a-
.	16gJJ
*clefF4	*
=241	=241
8dL	16fLL
.	16a-
8c	16f
.	16e-JJ
8B-	16dLL
.	16f
8A-	16d
.	16cJJ
8G	16B-LL
.	16d
8FJ	16B-
.	16A-JJ
*	*clefF4
=242	=242
8E-L	16GLL
.	16B-
8DJ	16G
.	16FJJ
8CL	16E-LL
.	16G
8BB-J	16E-
.	16DJJ
8AA-L	16CLL
.	16E-
8GGJ	16C
.	16BB-JJ
=243	=243
4FF	4AA-
4r	4BB 4D 4A- 4B
4r	4r
=244	=244
4FFF# 4FF#	4r
4r	4C 4E- 4A 4c
4r	4r
=245	=245
4GGG	16GLL
.	16A
.	16G
.	16F#JJ
4.GG	16GLL
.	16B
.	16A
.	16cJJ
.	16BLL
.	16d
8BB	16B
.	16GJJ
=246	=246
(4C	16ALL
.	16B
.	16A
.	16G#JJ
4.GG)	16ALL
.	16c
.	16B
.	16dJJ
*	*clefG2
.	16cLL
.	16e
8C	16c
.	16AJJ
=247	=247
(4D	16BLL
.	16c
.	16B
.	16AJJ
4.GG)	16BLL
.	16d
.	16c
.	16eJJ
.	16dLL
.	16f
8D	16d
.	16BJJ
=248	=248
(4E	16cLL
.	16d
.	16c
.	16BJJ
4.GG)	16cLL
.	16e
.	16d
.	16fJJ
.	16eLL
.	16g
8E	16e
.	16cJJ
=249	=249
[2.GG [2.BB [2.D [2.F	(16dLL
.	16e
.	16f
.	16gJJ
.	16aLL
.	16b-
.	16b
.	16ccJJ
.	16cc#LL
.	16dd
.	16ee-
.	16eeJJ
=250	=250
2.GG] 2.BB_ 2.D_ 2.F_	16ffLL
.	16ff#
.	16gg
.	16gg#JJ
.	16aaLL
.	16bb-
.	16bb
.	16cccJJ
.	16ccc#LL
.	16ddd
.	16eee-
.	16eeeJJ)
=251	=251
[2.GG# 2.BB_ 2.D_ 2.F_	16ffLL
.	16fff
.	16ee
.	16eeeJJ
.	16ffLL
.	16fff
.	16ee
.	16eeeJJ
.	16ffLL
.	16fff
.	16ee
.	16eeeJJ
=252	=252
2.GG#] 2.BB] 2.D] 2.F]	16ffLL
.	16fff
.	16ff
.	16fffJJ
.	16eeLL
.	16eee
.	16dd
.	16dddJJ
.	16ccLL
.	16ccc
.	16b
.	16bbJJ
=253	=253
4AA 4C 4E	8r
.	(8bbL
4r	8ddd')
.	(8ccc
4r	8bb')
.	(8cccJ
=254	=254
2.r	8eee'L)
.	(8ccc
.	8bb')
.	(8ccc
.	8ddd')
.	8cccJ
=255	=255
4F 4A 4c 4d	8r
.	(8gg#L
4r	8bb')
.	(8aa
4r	8gg#')
.	(8aaJ
=256	=256
2.r	8ccc'L)
.	(8aa
.	8gg#')
.	(8aa
.	8bb')
.	8aaJ
=257	=257
4G 4c 4e	8r
.	(8ff#L
4r	8aa')
.	(8gg
4r	8ff#')
.	(8ggJ
=258	=258
2.r	8ff#'L)
.	(8gg
.	8aa
.	8gg
.	8ff
.	8eeJ)
=259	=259
2.G 2.B 2.d 2.f	[2.dd
=260	=260
2.G# 2.B 2.d 2.f	4dd_
.	(8.ddL]
.	16ccJk
.	8.eeL
.	16ddJk)
=261	=261
16r	4cc
16ALL	.
16c	.
16eJJ	.
4a	16r
.	16eeLL
.	16ff
.	16ggJJ
4r	16aaLL
.	16bb
.	16ccc
.	16dddJJ
=262	=262
2.r	16eeeLL
.	16ddd#
.	16eee
.	16ddd#JJ
.	16eeeLL
.	16ddd
.	16ccc
.	16bbJJ
.	16aaLL
.	16gg
.	16ff
.	16eeJJ
=263	=263
2.F# 2.A 2.c 2.d	[2.dd
=264	=264
2.G 2.B 2.d 2.f	2.dd]
=265	=265
16r	4ee
16CCLL	.
16EE	.
16GGJJ	.
4C	16r
.	16ELL
.	16G
.	16cJJ
16r	16e
16CLL	16eLL
16E	16g
16GJJ	16ccJJ
=266	=266
16c	16ee
*clefG2	*
16cLL	16eeLL
16e	16gg
16gJJ	16cccJJ
(16ccLL	(16eeeLL
16dd	16fff
16cc	16eee
16ddJJ	16fffJJ
16ccLL	16eeeLL
16dd	16fff
16cc	16eee
16ddJJ)	16fffJJ)
=267	=267
2.g; 2.b; 2.dd; 2.ff;	2.ddd;
=	=
*-	*-
